images/logo (1).svg

<svg width="227" height="60" viewBox="0 0 227 60" fill="none" xmlns="http://www.w3.org/2000/svg">
<g clip-path="url(#clip0_19_119)">
<path d="M19 0L0 13.646V48.6501L10.5341 59.1841L10.3021 22.4196L19 15.3082L27.6979 22.4196L27.4659 59.1841L38 48.6501V13.646L19 0Z" fill="#252420"/>
<path d="M25.9939 29.5921L19 33.791L12.0062 29.5921V41.8506L19 46.055L25.9939 41.8506V29.5921Z" fill="#FF7401"/>
</g>
<path d="M62.6875 35.9358H56.4219L55.2031 40.5921H50.3438L57.4531 17.8421H61.6562L68.8125 40.5921H63.9062L62.6875 35.9358ZM57.4219 32.1077H61.6719L59.5469 23.9983L57.4219 32.1077ZM76.3438 34.0764L75.1562 35.4046V40.5921H70.7344V16.5921H75.1562V29.5608L75.7031 28.7483L78.7656 23.6858H84.0312L79.125 30.6546L84.5 40.5921H79.4375L76.3438 34.0764ZM94.0781 40.5921C93.9531 40.3317 93.8281 39.8942 93.7031 39.2796C92.9115 40.3629 91.8385 40.9046 90.4844 40.9046C89.0677 40.9046 87.8906 40.4358 86.9531 39.4983C86.026 38.5608 85.5625 37.3473 85.5625 35.8577C85.5625 34.0869 86.125 32.7171 87.25 31.7483C88.3854 30.7796 90.0156 30.2848 92.1406 30.2639H93.4844V28.9046C93.4844 28.1442 93.3542 27.6077 93.0938 27.2952C92.8333 26.9827 92.4531 26.8264 91.9531 26.8264C90.849 26.8264 90.2969 27.4723 90.2969 28.7639H85.875C85.875 27.2014 86.4583 25.915 87.625 24.9046C88.8021 23.8837 90.2865 23.3733 92.0781 23.3733C93.9323 23.3733 95.3646 23.8577 96.375 24.8264C97.3958 25.7848 97.9062 27.1598 97.9062 28.9514V36.9046C97.9271 38.3629 98.1354 39.5035 98.5312 40.3264V40.5921H94.0781ZM91.4688 37.4358C91.9583 37.4358 92.375 37.3369 92.7188 37.1389C93.0625 36.941 93.3177 36.7067 93.4844 36.4358V32.9202H92.4219C91.6719 32.9202 91.0781 33.1598 90.6406 33.6389C90.2135 34.1181 90 34.7587 90 35.5608C90 36.8108 90.4896 37.4358 91.4688 37.4358ZM100.516 31.6233C100.516 28.8525 100.984 26.7848 101.922 25.4202C102.859 24.0556 104.224 23.3733 106.016 23.3733C107.318 23.3733 108.401 23.9358 109.266 25.0608V16.5921H113.719V40.5921H109.703L109.5 38.8733C108.594 40.2275 107.427 40.9046 106 40.9046C104.229 40.9046 102.875 40.2275 101.938 38.8733C101.01 37.5192 100.536 35.5296 100.516 32.9046V31.6233ZM104.953 32.7327C104.953 34.3994 105.13 35.566 105.484 36.2327C105.839 36.8889 106.438 37.2171 107.281 37.2171C108.156 37.2171 108.818 36.8264 109.266 36.0452V28.3264C108.828 27.4931 108.172 27.0764 107.297 27.0764C106.484 27.0764 105.891 27.4046 105.516 28.0608C105.141 28.7171 104.953 29.8837 104.953 31.5608V32.7327ZM123.812 40.9046C121.542 40.9046 119.771 40.2275 118.5 38.8733C117.229 37.5192 116.594 35.5817 116.594 33.0608V31.7171C116.594 29.0504 117.177 26.9931 118.344 25.5452C119.51 24.0973 121.182 23.3733 123.359 23.3733C125.484 23.3733 127.083 24.0556 128.156 25.4202C129.229 26.7744 129.776 28.7848 129.797 31.4514V33.6233H121C121.062 34.8733 121.339 35.79 121.828 36.3733C122.318 36.9462 123.073 37.2327 124.094 37.2327C125.573 37.2327 126.807 36.7275 127.797 35.7171L129.531 38.3889C128.99 39.1389 128.203 39.7483 127.172 40.2171C126.141 40.6754 125.021 40.9046 123.812 40.9046ZM121.031 30.5296H125.453V30.1233C125.432 29.1129 125.266 28.3473 124.953 27.8264C124.641 27.3056 124.099 27.0452 123.328 27.0452C122.557 27.0452 121.995 27.3212 121.641 27.8733C121.297 28.4254 121.094 29.3108 121.031 30.5296ZM136.453 23.6858L136.578 25.2483C137.568 23.9983 138.875 23.3733 140.5 23.3733C142.188 23.3733 143.38 24.1337 144.078 25.6546C145.047 24.1337 146.427 23.3733 148.219 23.3733C151.177 23.3733 152.693 25.4202 152.766 29.5139V40.5921H148.344V29.7952C148.344 28.816 148.208 28.1181 147.938 27.7014C147.667 27.2848 147.208 27.0764 146.562 27.0764C145.74 27.0764 145.125 27.5817 144.719 28.5921L144.75 29.1233V40.5921H140.328V29.8264C140.328 28.8577 140.198 28.1598 139.938 27.7327C139.677 27.2952 139.214 27.0764 138.547 27.0764C137.786 27.0764 137.182 27.4879 136.734 28.3108V40.5921H132.312V23.6858H136.453Z" fill="#252420"/>
<path d="M160.094 23.6858L160.219 25.3577C161.219 24.0348 162.526 23.3733 164.141 23.3733C167.047 23.3733 168.542 25.4098 168.625 29.4827V40.5921H164.188V29.8108C164.188 28.8525 164.042 28.1598 163.75 27.7327C163.469 27.2952 162.969 27.0764 162.25 27.0764C161.448 27.0764 160.823 27.4879 160.375 28.3108V40.5921H155.938V23.6858H160.094ZM179.828 40.5921C179.703 40.3317 179.578 39.8942 179.453 39.2796C178.661 40.3629 177.589 40.9046 176.234 40.9046C174.818 40.9046 173.641 40.4358 172.703 39.4983C171.776 38.5608 171.312 37.3473 171.312 35.8577C171.312 34.0869 171.875 32.7171 173 31.7483C174.135 30.7796 175.766 30.2848 177.891 30.2639H179.234V28.9046C179.234 28.1442 179.104 27.6077 178.844 27.2952C178.583 26.9827 178.203 26.8264 177.703 26.8264C176.599 26.8264 176.047 27.4723 176.047 28.7639H171.625C171.625 27.2014 172.208 25.915 173.375 24.9046C174.552 23.8837 176.036 23.3733 177.828 23.3733C179.682 23.3733 181.115 23.8577 182.125 24.8264C183.146 25.7848 183.656 27.1598 183.656 28.9514V36.9046C183.677 38.3629 183.885 39.5035 184.281 40.3264V40.5921H179.828ZM177.219 37.4358C177.708 37.4358 178.125 37.3369 178.469 37.1389C178.812 36.941 179.068 36.7067 179.234 36.4358V32.9202H178.172C177.422 32.9202 176.828 33.1598 176.391 33.6389C175.964 34.1181 175.75 34.7587 175.75 35.5608C175.75 36.8108 176.24 37.4358 177.219 37.4358ZM194.344 36.0608C194.344 35.6858 194.161 35.3421 193.797 35.0296C193.443 34.7067 192.646 34.2744 191.406 33.7327C189.583 32.9931 188.328 32.2275 187.641 31.4358C186.964 30.6442 186.625 29.6598 186.625 28.4827C186.625 27.0035 187.156 25.7848 188.219 24.8264C189.292 23.8577 190.708 23.3733 192.469 23.3733C194.323 23.3733 195.807 23.8525 196.922 24.8108C198.036 25.7692 198.594 27.0556 198.594 28.6702H194.172C194.172 27.2952 193.599 26.6077 192.453 26.6077C191.984 26.6077 191.599 26.7535 191.297 27.0452C190.995 27.3369 190.844 27.7431 190.844 28.2639C190.844 28.6389 191.01 28.9723 191.344 29.2639C191.677 29.5452 192.464 29.9514 193.703 30.4827C195.505 31.1494 196.776 31.8942 197.516 32.7171C198.266 33.5296 198.641 34.5869 198.641 35.8889C198.641 37.3994 198.073 38.6129 196.938 39.5296C195.802 40.4462 194.312 40.9046 192.469 40.9046C191.229 40.9046 190.135 40.665 189.188 40.1858C188.24 39.6962 187.495 39.0192 186.953 38.1546C186.422 37.29 186.156 36.3577 186.156 35.3577H190.359C190.38 36.1285 190.557 36.7067 190.891 37.0921C191.234 37.4775 191.792 37.6702 192.562 37.6702C193.75 37.6702 194.344 37.1337 194.344 36.0608ZM205.703 25.1702C206.661 23.9723 207.839 23.3733 209.234 23.3733C210.776 23.3733 211.948 23.915 212.75 24.9983C213.552 26.0817 213.958 27.6962 213.969 29.8421V40.5921H209.531V29.8889C209.531 28.8994 209.375 28.1858 209.062 27.7483C208.76 27.3004 208.266 27.0764 207.578 27.0764C206.776 27.0764 206.151 27.4462 205.703 28.1858V40.5921H201.281V16.5921H205.703V25.1702ZM225.484 27.9514L224.016 27.8264C222.807 27.8264 221.99 28.3577 221.562 29.4202V40.5921H217.125V23.6858H221.297L221.422 25.5139C222.12 24.0869 223.083 23.3733 224.312 23.3733C224.812 23.3733 225.219 23.441 225.531 23.5764L225.484 27.9514Z" fill="#FF7500"/>
<defs>
<clipPath id="clip0_19_119">
<rect width="38" height="59.1841" fill="white"/>
</clipPath>
</defs>
</svg>

<svg width="227" height="60" fill="none" xmlns="http://www.w3.org/2000/svg"><g clip-path="url(#clip0_19_119)"><path d="M19 0L0 13.646V48.65l10.534 10.534-.232-36.764L19 15.308l8.698 7.112-.232 36.764L38 48.65V13.646L19 0z" fill="#252420"/><path d="M25.994 29.592L19 33.791l-6.994-4.199v12.259L19 46.055l6.994-4.204V29.592z" fill="#FF7401"/></g><path d="M62.688 35.936h-6.266l-1.219 4.656h-4.86l7.11-22.75h4.203l7.157 22.75h-4.907l-1.218-4.656zm-5.266-3.828h4.25l-2.125-8.11-2.125 8.11zm18.922 1.968l-1.188 1.329v5.187h-4.422v-24h4.422v12.969l.547-.813 3.063-5.062h5.265l-4.906 6.969 5.375 9.937h-5.063l-3.093-6.516zm17.734 6.516c-.125-.26-.25-.698-.375-1.312-.791 1.083-1.865 1.625-3.219 1.625-1.416 0-2.593-.47-3.53-1.407-.928-.937-1.391-2.15-1.391-3.64 0-1.771.562-3.14 1.687-4.11 1.135-.968 2.766-1.463 4.89-1.484h1.344v-1.36c0-.76-.13-1.296-.39-1.609-.26-.312-.64-.469-1.14-.469-1.105 0-1.657.646-1.657 1.938h-4.422c0-1.563.583-2.849 1.75-3.86 1.177-1.02 2.662-1.53 4.453-1.53 1.854 0 3.287.484 4.297 1.452 1.02.959 1.531 2.334 1.531 4.125v7.954c.021 1.458.23 2.599.625 3.421v.266h-4.453zm-2.61-3.156c.49 0 .907-.1 1.25-.297.344-.198.6-.432.766-.703V32.92h-1.062c-.75 0-1.344.24-1.781.719-.428.48-.641 1.12-.641 1.922 0 1.25.49 1.875 1.469 1.875zm9.048-5.813c0-2.77.468-4.838 1.406-6.203.937-1.364 2.302-2.047 4.094-2.047 1.302 0 2.385.563 3.25 1.688v-8.469h4.453v24h-4.016l-.203-1.719c-.906 1.355-2.073 2.032-3.5 2.032-1.771 0-3.125-.678-4.062-2.032-.928-1.354-1.402-3.343-1.422-5.968v-1.282zm4.437 1.11c0 1.666.177 2.833.531 3.5.355.656.954.984 1.797.984.875 0 1.537-.39 1.985-1.172v-7.719c-.438-.833-1.094-1.25-1.969-1.25-.813 0-1.406.329-1.781.985-.375.656-.563 1.823-.563 3.5v1.172zm18.859 8.172c-2.27 0-4.041-.678-5.312-2.032s-1.906-3.291-1.906-5.812v-1.344c0-2.667.583-4.724 1.75-6.172 1.166-1.448 2.838-2.172 5.015-2.172 2.125 0 3.724.683 4.797 2.047 1.073 1.354 1.62 3.365 1.641 6.031v2.172H121c.062 1.25.339 2.167.828 2.75.49.573 1.245.86 2.266.86 1.479 0 2.713-.505 3.703-1.516l1.734 2.672c-.541.75-1.328 1.36-2.359 1.828-1.031.458-2.151.688-3.36.688zm-2.781-10.375h4.422v-.407c-.021-1.01-.187-1.776-.5-2.297-.312-.52-.854-.78-1.625-.78s-1.333.275-1.687.827c-.344.552-.547 1.438-.61 2.657zm15.422-6.844l.125 1.562c.99-1.25 2.297-1.875 3.922-1.875 1.688 0 2.88.76 3.578 2.282.969-1.521 2.349-2.282 4.141-2.282 2.958 0 4.474 2.047 4.547 6.14v11.08h-4.422V29.794c0-.979-.136-1.677-.406-2.094-.271-.416-.73-.625-1.376-.625-.822 0-1.437.506-1.843 1.516l.031.531v11.47h-4.422V29.825c0-.968-.13-1.666-.39-2.093-.261-.438-.724-.657-1.391-.657-.761 0-1.365.412-1.813 1.235v12.281h-4.422V23.686h4.141z" fill="#252420"/><path d="M160.094 23.686l.125 1.672c1-1.323 2.307-1.985 3.922-1.985 2.906 0 4.401 2.037 4.484 6.11v11.11h-4.437V29.81c0-.959-.146-1.651-.438-2.078-.281-.438-.781-.657-1.5-.657-.802 0-1.427.412-1.875 1.235v12.281h-4.437V23.686h4.156zm19.734 16.906c-.125-.26-.25-.698-.375-1.312-.792 1.083-1.864 1.625-3.219 1.625-1.416 0-2.593-.47-3.531-1.407-.927-.937-1.391-2.15-1.391-3.64 0-1.771.563-3.14 1.688-4.11 1.135-.968 2.766-1.463 4.891-1.484h1.343v-1.36c0-.76-.13-1.296-.39-1.609-.261-.312-.641-.469-1.141-.469-1.104 0-1.656.646-1.656 1.938h-4.422c0-1.563.583-2.849 1.75-3.86 1.177-1.02 2.661-1.53 4.453-1.53 1.854 0 3.287.484 4.297 1.452 1.021.959 1.531 2.334 1.531 4.125v7.954c.021 1.458.229 2.599.625 3.421v.266h-4.453zm-2.609-3.156c.489 0 .906-.1 1.25-.297.343-.198.599-.432.765-.703V32.92h-1.062c-.75 0-1.344.24-1.781.719-.427.48-.641 1.12-.641 1.922 0 1.25.49 1.875 1.469 1.875zm17.125-1.375c0-.375-.183-.719-.547-1.031-.354-.323-1.151-.756-2.391-1.297-1.823-.74-3.078-1.505-3.765-2.297-.677-.792-1.016-1.776-1.016-2.953 0-1.48.531-2.698 1.594-3.657 1.073-.968 2.489-1.453 4.25-1.453 1.854 0 3.338.48 4.453 1.438 1.114.958 1.672 2.245 1.672 3.86h-4.422c0-1.376-.573-2.063-1.719-2.063-.469 0-.854.145-1.156.437-.302.292-.453.698-.453 1.219 0 .375.166.708.5 1 .333.281 1.12.687 2.359 1.219 1.802.666 3.073 1.411 3.813 2.234.75.813 1.125 1.87 1.125 3.172 0 1.51-.568 2.724-1.703 3.64-1.136.917-2.626 1.376-4.469 1.376-1.24 0-2.334-.24-3.281-.72-.948-.489-1.693-1.166-2.235-2.03a5.25 5.25 0 0 1-.797-2.797h4.203c.021.77.198 1.349.532 1.734.343.386.901.578 1.671.578 1.188 0 1.782-.536 1.782-1.61zm11.359-10.89c.958-1.199 2.136-1.798 3.531-1.798 1.542 0 2.714.542 3.516 1.625.802 1.084 1.208 2.698 1.219 4.844v10.75h-4.438V29.89c0-.99-.156-1.703-.469-2.14-.302-.449-.796-.673-1.484-.673-.802 0-1.427.37-1.875 1.11v12.406h-4.422v-24h4.422v8.578zm19.781 2.78l-1.468-.125c-1.209 0-2.026.532-2.454 1.594v11.172h-4.437V23.686h4.172l.125 1.828c.698-1.427 1.661-2.14 2.89-2.14.5 0 .907.067 1.219.202l-.047 4.375z" fill="#FF7500"/><defs><clipPath id="clip0_19_119"><path fill="#fff" d="M0 0h38v59.184H0z"/></clipPath></defs></svg>
